X:0365
T:The Brothers.
M:C
L:1/8
Q:1/2=116
I: :| ||
Z:Jack Campin * www.campin.me.uk * 2009
K:G
G2Bd c2B2|A2BG F2D2|G2BG A2cA|BdcB B2A2|
G2Bd c2B2|A2BG F2D2|G2BG A2c2|BGAF G4 :|
Bdef gdcB|ABcd ecBA|G2BG A2cA|BdcB B2AB|
cdef gdcB|ABcd ecBA|G2BG A2c2|BGAF G4 :|

